dist/img/partners/12.svg

<svg width="92" height="68" viewBox="0 0 92 68" fill="none" xmlns="http://www.w3.org/2000/svg">
<path d="M35.2115 0.0798988C31.6032 0.488041 28.9042 2.5069 27.8939 5.56071C27.562 6.58107 27.4609 7.29533 27.4609 8.59994C27.4682 10.7136 27.6991 11.6319 29.1712 15.3416C31.2785 20.6475 32.5558 24.6342 33.9846 30.3556C34.9156 34.1018 35.5723 35.7999 37.0011 38.1395C38.1919 40.1 39.9888 42.0314 41.6774 43.1611C42.3053 43.5839 43.4383 44.1596 44.1599 44.422C46.1589 45.1436 48.5259 45.231 50.763 44.6698C51.1094 44.5824 53.3537 43.6422 56.4279 42.3084C62.4393 39.6919 64.1424 38.9704 66.8919 37.848C69.1362 36.9296 69.5764 36.7037 70.5434 35.9457C72.1527 34.6848 73.329 32.9939 73.9496 31.048C74.2743 30.0203 74.4042 29.2405 74.4475 28.0233C74.5125 26.3543 74.3032 24.8966 73.7692 23.213C73.4733 22.2947 73.3073 21.9448 71.7125 18.9275C70.2115 16.0923 68.9125 13.4831 68.3857 12.2441C67.2166 9.51098 66.5455 8.42502 65.1238 6.93092C62.2517 3.92084 58.2032 2.14978 52.3651 1.34806C49.2908 0.932629 44.8022 0.473465 41.7063 0.262104C37.9754 -0.000274658 36.3084 -0.0440063 35.2115 0.0798988ZM52.964 8.38858C56.5001 8.73113 59.9424 10.2034 61.9919 12.2587C62.6413 12.9073 63.4279 14.0224 63.7455 14.7221C64.7413 16.9742 65.1166 17.7978 66.1341 20.0062C66.8774 21.6023 67.3754 22.7757 67.4692 23.1401C68.1042 25.6182 67.6352 27.4913 65.9609 29.102C65.0661 29.962 64.3733 30.3847 63.031 30.8876C61.3424 31.5217 59.9857 31.9736 58.8816 32.2651C58.0228 32.491 57.7991 32.5202 57.0053 32.5275C56.3197 32.5275 55.9517 32.491 55.4682 32.3744C52.6321 31.6747 50.3733 29.0655 49.1032 24.9987C48.8795 24.299 48.0568 21.7408 47.263 19.3138C46.4692 16.8868 45.7908 14.693 45.7475 14.4306C45.4661 12.5794 45.9496 10.8083 47.0321 9.70776C48.2877 8.44688 49.8754 8.08976 52.964 8.38858Z" fill="#EE3324"/>
<path d="M26.4272 49.597C25.5468 49.8375 24.8035 50.4279 24.4427 51.1786C24.3416 51.39 22.754 55.1726 20.921 59.582C19.088 63.9915 17.5726 67.621 17.5509 67.6575C17.5365 67.6866 18.6334 67.7012 19.9901 67.6939L22.4581 67.6721L23.0715 66.0832L23.6849 64.5016L27.4087 64.5162L31.1324 64.5381L31.7819 66.1196L32.4313 67.7085H34.8705C36.2056 67.7085 37.3025 67.6866 37.3025 67.6648C37.3025 67.5846 30.6489 51.6378 30.4324 51.2077C29.9994 50.3404 29.2705 49.7574 28.3684 49.5679C27.8489 49.4585 26.8891 49.4731 26.4272 49.597ZM28.5272 58.0952C29.1478 59.6039 29.653 60.8721 29.653 60.9231C29.653 60.9814 29.0396 61.0032 27.3798 61.0032C26.1313 61.0032 25.1066 60.9814 25.1066 60.9522C25.1066 60.8065 27.3148 55.2601 27.3509 55.3038C27.3798 55.3329 27.9066 56.5865 28.5272 58.0952Z" fill="#1F2120"/>
<path d="M75.1908 49.7645C74.9743 49.8373 74.7146 49.9394 74.6207 49.9904C74.296 50.1726 73.8053 50.6828 73.6176 51.0545L73.4228 51.4189L73.4012 59.5599L73.3867 67.7083H75.5877H77.7888L77.8032 61.9724L77.8249 56.2438L81.8445 61.6371C84.0527 64.6035 86.0156 67.169 86.196 67.3293C86.7589 67.8249 87.1847 67.9561 88.2888 67.9634C89.0826 67.9634 89.2991 67.9415 89.696 67.7957C90.2589 67.599 90.7713 67.2345 91.0671 66.8191C91.5146 66.1923 91.5001 66.564 91.5001 57.7816V49.779L89.2847 49.7936L87.062 49.8155L87.0259 55.668L86.9898 61.5205L82.9847 56.1782C80.7836 53.241 78.8207 50.6755 78.6187 50.4787C78.4238 50.2819 78.0486 50.0195 77.7888 49.8956C77.3558 49.6916 77.2475 49.6697 76.4537 49.6551C75.7754 49.6406 75.5012 49.6624 75.1908 49.7645Z" fill="#1F2120"/>
<path d="M3.58052 49.8594C1.97846 50.027 1.11969 50.5445 0.708352 51.5722L0.535156 52.0022V58.7439V65.4856L0.701136 65.901C0.93928 66.4986 1.39392 66.9797 1.99289 67.2566C2.72175 67.5919 3.52279 67.7085 5.18258 67.7085C8.10526 67.7085 10.3496 67.242 12.5145 66.1852C15.3145 64.815 17.162 62.7524 17.7898 60.3109C17.9558 59.6476 17.9702 59.4873 17.9413 58.5252C17.9125 57.7381 17.8692 57.3299 17.7537 56.9291C16.7651 53.5109 12.9331 50.7121 8.32897 50.0416C6.77742 49.8157 4.72794 49.7355 3.58052 49.8594ZM7.70835 53.5692C10.5084 54.1449 12.6517 55.8504 13.0991 57.862C13.2506 58.5398 13.2001 59.4654 12.9764 60.1214C12.3991 61.8195 10.5733 63.2408 8.19907 63.8457C7.50629 64.0206 6.07743 64.2101 5.44959 64.2101H5.26196V58.7657V53.3286L6.11351 53.3724C6.58258 53.3942 7.29701 53.4817 7.70835 53.5692Z" fill="#1F2120"/>
<path d="M39.3945 58.7439V67.7085H41.776H44.1574V64.0643C44.1574 62.06 44.1791 60.4202 44.2152 60.4275C44.244 60.4275 45.7956 62.0673 47.6574 64.0716L51.0492 67.7085H54.0368H57.0172L52.5574 63.146C50.0966 60.6315 48.0976 58.5398 48.0976 58.4888C48.1048 58.4378 49.8296 56.4772 51.944 54.1304C54.0512 51.7762 55.776 49.8375 55.776 49.8157C55.776 49.7574 50.3347 49.7719 50.2554 49.8375C50.2121 49.8667 48.8265 51.4264 47.1883 53.3141L44.1935 56.7323L44.1719 53.2558L44.1574 49.7792H41.776H39.3945V58.7439Z" fill="#1F2120"/>
<path d="M60.8506 49.8594C59.4867 50.0197 58.3248 50.7194 58.0361 51.5576C57.9135 51.9001 57.9062 52.4176 57.9062 58.7074C57.9062 65.1722 57.9135 65.5074 58.0434 65.8864C58.3898 66.9068 59.0753 67.417 60.4032 67.6283C60.6846 67.6793 62.597 67.7085 65.3609 67.7085H69.8495V65.9593V64.2101H66.2774H62.7052V62.2423V60.2744L65.9382 60.2598L69.164 60.238L69.1856 58.4669L69.2001 56.7031H65.9526H62.7052V55.0268V53.3505H66.2774H69.8495L69.8351 51.5794L69.8135 49.8157L65.5918 49.8084C63.2681 49.8011 61.1392 49.823 60.8506 49.8594Z" fill="#1F2120"/>
</svg>

<svg width="92" height="68" viewBox="0 0 92 68" fill="none" xmlns="http://www.w3.org/2000/svg"><path d="M35.212.08c-3.609.408-6.308 2.427-7.318 5.48-.332 1.021-.433 1.735-.433 3.04.007 2.114.238 3.032 1.71 6.742 2.108 5.306 3.385 9.292 4.814 15.014.93 3.746 1.587 5.444 3.016 7.783 1.19 1.961 2.988 3.892 4.676 5.022.628.423 1.761.999 2.483 1.261 1.999.722 4.366.809 6.603.248.346-.088 2.59-1.028 5.665-2.362 6.011-2.616 7.714-3.338 10.464-4.46 2.244-.918 2.684-1.144 3.651-1.902a10.088 10.088 0 003.407-4.898c.324-1.028.454-1.807.498-3.025.065-1.669-.145-3.126-.679-4.81-.296-.918-.462-1.268-2.056-4.286-1.501-2.835-2.8-5.444-3.327-6.683-1.17-2.733-1.84-3.819-3.262-5.313-2.872-3.01-6.92-4.781-12.759-5.583A186.498 186.498 0 0041.706.262C37.976 0 36.308-.044 35.211.08zm17.752 8.309c3.536.342 6.978 1.814 9.028 3.87.65.648 1.436 1.763 1.754 2.463a296.743 296.743 0 002.388 5.284c.743 1.596 1.241 2.77 1.335 3.134.635 2.478.166 4.351-1.508 5.962-.895.86-1.588 1.283-2.93 1.786-1.689.634-3.045 1.086-4.15 1.377-.858.226-1.082.255-1.876.263-.685 0-1.053-.037-1.537-.154-2.836-.7-5.095-3.309-6.365-7.375-.224-.7-1.046-3.258-1.84-5.685-.794-2.427-1.472-4.621-1.515-4.883-.282-1.852.202-3.623 1.284-4.723 1.256-1.261 2.843-1.618 5.932-1.32z" fill="#EE3324"/><path d="M26.427 49.597c-.88.24-1.623.83-1.984 1.582-.101.211-1.689 3.994-3.522 8.403-1.833 4.41-3.348 8.039-3.37 8.075-.014.03 1.082.044 2.44.037l2.467-.022.614-1.589.613-1.581 3.724.014 3.723.022.65 1.582.65 1.588h2.438c1.336 0 2.433-.021 2.433-.043 0-.08-6.654-16.027-6.87-16.457-.434-.868-1.163-1.45-2.065-1.64-.52-.11-1.479-.095-1.94.029zm2.1 8.498c.62 1.509 1.126 2.777 1.126 2.828 0 .058-.613.08-2.273.08-1.249 0-2.273-.022-2.273-.05 0-.147 2.208-5.693 2.244-5.65.029.03.556 1.284 1.176 2.792zm46.663-8.331a4.928 4.928 0 00-.57.226c-.324.183-.815.693-1.002 1.064l-.195.365-.022 8.14-.014 8.15h4.402l.014-5.737.022-5.728 4.02 5.393c2.208 2.966 4.17 5.532 4.351 5.692.563.496.989.627 2.093.634.794 0 1.01-.021 1.407-.167.563-.197 1.075-.562 1.371-.977.448-.627.433-.255.433-9.037v-8.003l-2.215.015-2.223.022-.036 5.852-.036 5.852-4.005-5.342c-2.201-2.937-4.164-5.502-4.366-5.7a3.555 3.555 0 00-.83-.582c-.433-.204-.541-.226-1.335-.24-.679-.015-.953.006-1.263.108zm-71.61.096c-1.602.167-2.46.684-2.872 1.712l-.173.43v13.484l.166.415a2.513 2.513 0 001.292 1.356c.729.335 1.53.451 3.19.451 2.922 0 5.167-.466 7.332-1.523 2.8-1.37 4.647-3.433 5.275-5.874.166-.663.18-.824.151-1.786-.028-.787-.072-1.195-.187-1.596-.989-3.418-4.82-6.217-9.425-6.887-1.552-.226-3.601-.306-4.748-.183zm4.128 3.71c2.8.575 4.944 2.28 5.391 4.292.152.678.101 1.603-.123 2.26-.577 1.697-2.403 3.119-4.777 3.724-.693.175-2.122.364-2.75.364h-.187V53.33l.852.043c.469.022 1.183.11 1.594.197zm31.687 5.174v8.965h4.762v-3.645c0-2.004.022-3.644.058-3.636.029 0 1.58 1.64 3.442 3.644l3.392 3.636h5.968l-4.46-4.562c-2.46-2.514-4.46-4.606-4.46-4.657.008-.051 1.733-2.012 3.847-4.359 2.107-2.354 3.832-4.293 3.832-4.314 0-.059-5.441-.044-5.52.021-.044.03-1.43 1.59-3.068 3.477l-2.995 3.418-.021-3.476-.015-3.477h-4.763v8.965zM60.85 49.86c-1.363.16-2.525.86-2.814 1.698-.123.342-.13.86-.13 7.15 0 6.464.008 6.8.137 7.178.347 1.02 1.032 1.531 2.36 1.742.282.051 2.194.08 4.958.08h4.489V64.21h-7.145v-3.936l3.233-.014 3.226-.022.022-1.771.014-1.764h-6.495V53.35h7.145l-.015-1.77-.021-1.764-4.222-.008c-2.324-.007-4.453.015-4.741.051z" fill="#1F2120"/></svg>
